optimized/outline/document-duplicate.svg

<svg xmlns="http://www.w3.org/2000/svg" fill="none" viewBox="0 0 24 24" stroke-width="2" stroke="currentColor" aria-hidden="true">
  <path stroke-linecap="round" stroke-linejoin="round" d="M8 7V15C8 16.1046 8.89543 17 10 17H16M8 7V5C8 3.89543 8.89543 3 10 3H14.5858C14.851 3 15.1054 3.10536 15.2929 3.29289L19.7071 7.70711C19.8946 7.89464 20 8.149 20 8.41421V15C20 16.1046 19.1046 17 18 17H16M8 7H6C4.89543 7 4 7.89543 4 9V19C4 20.1046 4.89543 21 6 21H14C15.1046 21 16 20.1046 16 19V17"/>
</svg>

<svg xmlns="http://www.w3.org/2000/svg" fill="none" viewBox="0 0 24 24" stroke-width="2" stroke="currentColor" aria-hidden="true">
  <path stroke-linecap="round" stroke-linejoin="round" d="M8 7v8a2 2 0 002 2h6M8 7V5a2 2 0 012-2h4.586a1 1 0 01.707.293l4.414 4.414a1 1 0 01.293.707V15a2 2 0 01-2 2h-2M8 7H6a2 2 0 00-2 2v10a2 2 0 002 2h8a2 2 0 002-2v-2"/>
</svg>
